X:11924
T:no name
R:reel
S:Tape of Gary Hastings recorded in Portrush -81
Z:id:hn-reel-726
M:C|
K:Ador
A2gA fAeA|~A2dA {c}BAGB|A2gA fAeA|DEGA dcBA|
{c}A2gA fAeA|~A2dA {c}BAGz|DEGA (3Bcd eg|1 {c'}aged cA{c}AG:|2 {c'}aged cA~A2||
|:{c'}aged cA~A2|GAEA DAEz|{c'}aged cA~A2|{c'}bagb a3z|
{c'}aged cA~A2|GAEA DAEz|CDEG Acde|1 {c'}aged cA~A2:|2 {c'}aged cA{c}AG||
